X:1
T:Standin In The Need of Prayer
T:Judgement Day Is Rolling Round
T:Copyright 1918 by Homer A. Rodeheaver
T:Rodeheaver's Plantation Melodies
T:Rodeheaver's Plantation Melodies
Z:Rodeheaver's Plantation Melodies
%%score [ 1 2 3 4 ]
L:1/8
Q:1/4=100
M:4/4
K:F
V:1 treble nm="Soprano" snm="S."
V:2 treble nm="Alto" snm="A."
V:3 bass nm="Tenor" snm="T."
V:4 bass nm="Bass" snm="B."
V:1
 F-F | F F3 FFDC | DF F2 FG A2 | G G3 G F2 G | A2 F2 F2 F-F | G F3 | FFDC | DF F2 F2 c2 | %8
w: I've a|good old moth- er in the|heav- en, my Lord- * ,||* * * I've a|good old|moth- er in the|heav- en, my Lord, *|
 c A3 G3 F | F6 z2 |"^CHORUS" F2 F4 c2 | d2 c6 | d2 c2 c3 A | c2 A>G F4 | F2 F4 c2 | d2 c4 c2 | %16
w: ||||||||
 c A3 G3 F | F6 :| %18
w: ||
V:2
 z2 | z8 | z8 | E E3 E D2 E | F2 C2 C2 z2 | z4 | z4 | z4 z2 F2 | F F3 E3 F | F6 z2 | F2 F4 c2 | %11
w: |||How I long- * to|go there too;|||Oh,|how I long to|go.|Judg- ment- *|
 B2 A6 | B2 A2 A3 A | c2 A>G F4 | F2 F4 c2 | B2 A4 F2 | F F3 E3 F | F6 :| %18
w: Judg- ment,|Judg- ment day is|roll- ing a- round;|Judg- ment- *|Judg- ment, Oh,|how I long to|go.|
V:3
 z2 | z8 | z8 | C C3 C3 C | C2 A,2 A,2 z2 | z4 | z4 | z4 z2 A,2 | A, C3 B,3 A, | A,6 z2 | F,2 F,6 | %11
 F2 F6 | F2 F2 F3 C | C2 A,>G, F,4 | F,2 F,6 | F2 F4 A,2 | G, C3 B,3 A, | A,6 :| %18
V:4
 z2 | z8 | z8 | C, C,3 C,3 C, | F,2 F,2 F,2 z2 | z4 | z4 | z4 z2 F,2 | F, F,3 C,3 F, | F,6 z2 | %10
 F,2 F,6 | F,2 F,6 | F,2 F,2 F,3 F, | C2 A,>G, F,4 | %14
"_1. I've a good old mother in the heaven, my Lord. \n2. There's no backsliding in the heaven, my Lord. \n3. King Jesus sitting in the heaven, my Lord.\n4. There's a big camp meeting in the heaven, my Lord." F,2 F,6 | %15
 F,2 F,4 F,2 | F, F,3 C,3 F, | F,6 :| %18

